outputs/icons/social/money_euro_round.svg

<svg xmlns="http://www.w3.org/2000/svg" width="1200" height="1200" fill="none"><path fill="#000" d="M750 1050q-147.503.001-262.5-83.75C410.834 910.415 356.666 838.335 325 750H200c-27.614 0-50-22.385-50-50s22.386-50 50-50h102.5q-3.75-29.999-3.125-55.625T302.5 550H200c-27.615 0-50-22.385-50-50s22.386-50 50-50h125q47.5-132.5 162.5-216.25Q602.497 150 750 150q86.25 0 163.125 30.625 51.351 20.459 95.18 51.236c23.62 16.591 24.085 50.442 3.49 70.673-18.575 18.251-48.025 18.985-69.78 4.677q-31.529-20.733-67.64-34.711Q816.249 250 750 250c-70.835 0-134.165 18.541-190 55.625Q476.248 361.251 433.75 450H700c27.615 0 50 22.386 50 50s-22.385 50-50 50H403.75q-5 33.749-3.75 59.375T403.75 650H700c27.615 0 50 22.385 50 50s-22.385 50-50 50H433.75Q476.248 838.747 560 894.375C615.835 931.46 679.165 950 750 950q66.249 0 124.375-22.5 36.111-13.98 67.64-34.71c21.755-14.31 51.205-13.575 69.78 4.675 20.595 20.23 20.13 54.085-3.49 70.675-29.22 20.52-60.945 37.595-95.18 51.235Q836.25 1049.999 750 1050"/></svg>

<svg width="1200" height="1200" viewBox="0 0 1200 1200" fill="none" xmlns="http://www.w3.org/2000/svg"><path d="M750 1050C651.665 1050 564.165 1022.085 487.5 966.25C410.834 910.415 356.666 838.335 325 750H200C172.386 750 150 727.615 150 700C150 672.385 172.386 650 200 650H302.5C300 630 298.959 611.46 299.375 594.375C299.791 577.29 300.834 562.5 302.5 550H200C172.385 550 150 527.615 150 500C150 472.386 172.386 450 200 450H325C356.666 361.666 410.834 289.584 487.5 233.75C564.165 177.917 651.665 150 750 150C807.5 150 861.875 160.208 913.125 180.625C947.36 194.264 979.085 211.343 1008.305 231.861C1031.925 248.452 1032.39 282.303 1011.795 302.534C993.22 320.785 963.77 321.519 942.015 307.211C920.995 293.389 898.45 281.819 874.375 272.5C835.625 257.5 794.165 250 750 250C679.165 250 615.835 268.541 560 305.625C504.165 342.709 462.083 390.834 433.75 450H700C727.615 450 750 472.386 750 500C750 527.615 727.615 550 700 550H403.75C400.417 572.5 399.166 592.29 400 609.375C400.833 626.46 402.084 640 403.75 650H700C727.615 650 750 672.385 750 700C750 727.615 727.615 750 700 750H433.75C462.083 809.165 504.165 857.29 560 894.375C615.835 931.46 679.165 950 750 950C794.165 950 835.625 942.5 874.375 927.5C898.45 918.18 920.995 906.61 942.015 892.79C963.77 878.48 993.22 879.215 1011.795 897.465C1032.39 917.695 1031.925 951.55 1008.305 968.14C979.085 988.66 947.36 1005.735 913.125 1019.375C861.875 1039.79 807.5 1050 750 1050Z" fill="#1D1E23"/></svg>
